source/img/icons/warranty.svg

<svg width="23" height="18" viewBox="0 0 23 18" fill="none" xmlns="http://www.w3.org/2000/svg">
<g clip-path="url(#clip0_1807_847)">
<path d="M1.40674 5.33984H12.7988" stroke="black" stroke-width="0.712005" stroke-linecap="round" stroke-linejoin="round"/>
<path d="M1.40674 2.49316H12.7988V12.4612C12.7988 12.8389 12.6488 13.2011 12.3818 13.4682C12.1147 13.7352 11.7525 13.8853 11.3748 13.8853H2.83075C2.45308 13.8853 2.0909 13.7352 1.82384 13.4682C1.55679 13.2011 1.40674 12.8389 1.40674 12.4612V2.49316Z" stroke="black" stroke-width="0.712005" stroke-linecap="round" stroke-linejoin="round"/>
<path d="M9.95166 1.78125V3.20471" stroke="black" stroke-width="0.712005" stroke-linecap="round" stroke-linejoin="round"/>
<path d="M4.25586 1.78125V3.20471" stroke="black" stroke-width="0.712005" stroke-linecap="round" stroke-linejoin="round"/>
<path d="M4.09937 10.5895C4.09992 10.5353 4.11306 10.4821 4.13778 10.4339C4.1625 10.3857 4.19807 10.3439 4.24173 10.3118C5.66574 9.27227 6.16416 8.80236 6.16416 8.27547C6.16029 8.18896 6.13815 8.10429 6.09914 8.02698C6.06013 7.94967 6.00516 7.88149 5.93787 7.82699C5.87058 7.77249 5.79249 7.73289 5.70877 7.71079C5.62504 7.68868 5.53757 7.68457 5.45215 7.69875C5.14795 7.69599 4.8518 7.7964 4.61199 7.98357C4.5623 8.02565 4.4991 8.04838 4.43399 8.04762C4.39504 8.04764 4.3565 8.03988 4.32061 8.02477C4.28472 8.00965 4.2522 7.98749 4.225 7.95962C4.1978 7.93176 4.17645 7.89874 4.1622 7.8625C4.14796 7.82625 4.14113 7.78752 4.14208 7.74859C4.14232 7.70617 4.15203 7.66436 4.1705 7.62617C4.18898 7.58799 4.21574 7.55439 4.24886 7.52787C4.5851 7.25609 5.00562 7.11004 5.43794 7.1149C5.60504 7.09516 5.7744 7.11008 5.93548 7.1587C6.09656 7.20733 6.24587 7.28861 6.37414 7.3975C6.50241 7.5064 6.60687 7.64056 6.68099 7.79162C6.75512 7.94267 6.79734 8.10738 6.80498 8.27547C6.80498 8.98748 6.17129 9.59271 5.16025 10.3546H6.58426C6.62592 10.348 6.66852 10.3505 6.70911 10.362C6.7497 10.3735 6.7873 10.3936 6.81936 10.421C6.85143 10.4484 6.8772 10.4824 6.89485 10.5207C6.9125 10.559 6.92162 10.6007 6.92162 10.6429C6.92162 10.6851 6.9125 10.7267 6.89485 10.7651C6.8772 10.8034 6.85143 10.8374 6.81936 10.8648C6.7873 10.8922 6.7497 10.9123 6.70911 10.9238C6.66852 10.9353 6.62592 10.9378 6.58426 10.9313H4.44824C4.40276 10.9322 4.35755 10.9241 4.31526 10.9073C4.27297 10.8906 4.23446 10.8656 4.20197 10.8337C4.16947 10.8019 4.14367 10.7639 4.12605 10.7219C4.10843 10.68 4.09936 10.635 4.09937 10.5895Z" fill="black"/>
<path d="M10.1873 9.78417C10.1873 9.86226 10.1568 9.93728 10.1023 9.99316C10.0477 10.049 9.97343 10.0814 9.89536 10.0832H9.64617V10.6315C9.65316 10.679 9.64982 10.7275 9.63639 10.7737C9.62296 10.8198 9.59976 10.8625 9.56834 10.8989C9.53693 10.9353 9.49805 10.9645 9.45435 10.9845C9.41065 11.0045 9.36313 11.0148 9.31507 11.0148C9.26701 11.0148 9.21953 11.0045 9.17583 10.9845C9.13213 10.9645 9.09326 10.9353 9.06184 10.8989C9.03043 10.8625 9.00722 10.8198 8.99379 10.7737C8.98036 10.7275 8.97702 10.679 8.98401 10.6315V10.0832H7.56C7.45992 10.0832 7.36394 10.0435 7.29317 9.97269C7.2224 9.90192 7.18262 9.80594 7.18262 9.70586C7.1853 9.637 7.20755 9.57031 7.24672 9.5136L8.61376 7.37759C8.68137 7.27312 8.78096 7.19334 8.89766 7.15013C9.01436 7.10692 9.14192 7.10263 9.26127 7.13788C9.38062 7.17312 9.48536 7.24602 9.55987 7.34569C9.63437 7.44536 9.67462 7.56643 9.67464 7.69087V9.47801H9.91674C9.99293 9.4835 10.0639 9.51864 10.1145 9.57588C10.1651 9.63312 10.1912 9.70789 10.1873 9.78417ZM8.99114 9.49939V7.7621L7.84478 9.49939H8.99114Z" fill="black"/>
</g>
<path d="M14.1091 11.2949V16.9198L16.5122 15.3178L18.9063 16.9198V11.3216" fill="white"/>
<path d="M14.1091 11.2949V16.9198L16.5122 15.3178L18.9063 16.9198V11.3216" stroke="black" stroke-width="0.712005" stroke-linecap="round" stroke-linejoin="round"/>
<path d="M15.3188 1.42398C15.469 1.25646 15.6529 1.12247 15.8583 1.03075C16.0638 0.939019 16.2863 0.891602 16.5113 0.891602C16.7364 0.891602 16.9589 0.939019 17.1644 1.03075C17.3699 1.12247 17.5537 1.25646 17.704 1.42398L17.8108 1.53969C17.9698 1.72016 18.1679 1.86204 18.39 1.95457C18.612 2.04709 18.8522 2.08783 19.0924 2.0737H19.2526C19.4773 2.06208 19.7019 2.09792 19.9119 2.17892C20.1218 2.25991 20.3124 2.38423 20.4711 2.54377C20.6298 2.7033 20.7531 2.89447 20.833 3.10483C20.9128 3.3152 20.9475 3.54005 20.9347 3.7647V3.9249C20.9219 4.16358 20.9633 4.40206 21.0558 4.62247C21.1483 4.84288 21.2894 5.03949 21.4687 5.1976L21.5844 5.31331C21.7519 5.46356 21.8859 5.64743 21.9776 5.85291C22.0694 6.0584 22.1167 6.28088 22.1167 6.50591C22.1167 6.73094 22.0694 6.95346 21.9776 7.15894C21.8859 7.36443 21.7519 7.5483 21.5844 7.69855L21.4687 7.80534C21.2894 7.96346 21.1483 8.16007 21.0558 8.38047C20.9633 8.60088 20.9219 8.83937 20.9347 9.07805V9.24715C20.9476 9.47143 20.913 9.69589 20.833 9.90583C20.7531 10.1158 20.6295 10.3064 20.4707 10.4653C20.3118 10.6241 20.1212 10.7476 19.9113 10.8276C19.7013 10.9075 19.4769 10.9422 19.2526 10.9292H19.0835C18.8433 10.9151 18.6031 10.9559 18.381 11.0484C18.159 11.1409 17.9609 11.2828 17.8019 11.4633L17.6951 11.579C17.5448 11.7465 17.361 11.8805 17.1555 11.9722C16.95 12.0639 16.7275 12.1113 16.5024 12.1113C16.2774 12.1113 16.0549 12.0639 15.8494 11.9722C15.6439 11.8805 15.4601 11.7465 15.3099 11.579L15.2031 11.4633C15.0428 11.2843 14.8445 11.1435 14.6227 11.0511C14.401 10.9587 14.1614 10.9171 13.9214 10.9292H13.7434C13.5188 10.9421 13.294 10.9074 13.0836 10.8275C12.8732 10.7476 12.682 10.6243 12.5225 10.4656C12.363 10.3069 12.2387 10.1164 12.1577 9.90645C12.0767 9.69651 12.0408 9.47187 12.0524 9.24715V9.07805C12.065 8.84021 12.0244 8.60257 11.9335 8.3824C11.8427 8.16224 11.704 7.96511 11.5273 7.80534L11.4027 7.69855C11.2352 7.5483 11.1012 7.36443 11.0095 7.15894C10.9178 6.95346 10.8704 6.73094 10.8704 6.50591C10.8704 6.28088 10.9178 6.0584 11.0095 5.85291C11.1012 5.64743 11.2352 5.46356 11.4027 5.31331L11.5273 5.1976C11.704 5.03784 11.8427 4.84071 11.9335 4.62054C12.0244 4.40038 12.065 4.16273 12.0524 3.9249V3.7647C12.0409 3.5396 12.0768 3.31458 12.1577 3.10421C12.2386 2.89383 12.3628 2.7028 12.5222 2.54342C12.6816 2.38404 12.8726 2.25988 13.0829 2.17897C13.2933 2.09806 13.5183 2.0622 13.7434 2.0737H13.9036C14.1436 2.08588 14.3832 2.04425 14.6049 1.95185C14.8267 1.85946 15.025 1.71863 15.1852 1.53969L15.3188 1.42398Z" fill="white" stroke="black" stroke-width="0.712005"/>
<path d="M18.1046 5.69727L15.7105 8.09136L14.9094 7.29036" stroke="black" stroke-width="0.712005" stroke-linecap="round" stroke-linejoin="round"/>
<defs>
<clipPath id="clip0_1807_847">
<rect width="12.8161" height="13.1721" fill="white" transform="translate(0.696289 1.42578)"/>
</clipPath>
</defs>
</svg>

<svg width="23" height="18" fill="none" xmlns="http://www.w3.org/2000/svg"><g clip-path="url(#clip0_1807_847)"><path d="M1.407 5.34h11.392M1.407 2.493h11.392v9.968a1.424 1.424 0 01-1.424 1.424H2.83a1.424 1.424 0 01-1.424-1.424V2.493zm8.545-.712v1.424M4.256 1.781v1.424" stroke="#000" stroke-width=".712" stroke-linecap="round" stroke-linejoin="round"/><path d="M4.1 10.59a.348.348 0 01.142-.278c1.424-1.04 1.922-1.51 1.922-2.037a.612.612 0 00-.712-.576 1.34 1.34 0 00-.84.285.27.27 0 01-.178.064.292.292 0 01-.292-.3.285.285 0 01.107-.22 1.858 1.858 0 011.189-.413 1.225 1.225 0 011.367 1.16c0 .712-.634 1.318-1.645 2.08h1.424a.291.291 0 01.31.41.292.292 0 01-.31.166H4.448a.342.342 0 01-.349-.341zm6.087-.806a.3.3 0 01-.292.3h-.249v.548a.335.335 0 11-.662 0v-.549H7.56a.377.377 0 01-.377-.377.363.363 0 01.064-.192l1.367-2.136a.577.577 0 011.06.313v1.787h.243a.292.292 0 01.27.306zM8.991 9.5V7.762L7.845 9.5H8.99z" fill="#000"/></g><path d="M14.11 11.295v5.625l2.402-1.602 2.394 1.602v-5.598" fill="#fff"/><path d="M14.11 11.295v5.625l2.402-1.602 2.394 1.602v-5.598" stroke="#000" stroke-width=".712" stroke-linecap="round" stroke-linejoin="round"/><path d="M15.319 1.424a1.602 1.602 0 012.385 0l.107.116a1.584 1.584 0 001.281.534h.16a1.602 1.602 0 011.683 1.69v.16a1.583 1.583 0 00.534 1.274l.115.115a1.602 1.602 0 010 2.386l-.115.106a1.584 1.584 0 00-.534 1.273v.17a1.593 1.593 0 01-1.682 1.681h-.17a1.585 1.585 0 00-1.281.534l-.107.116a1.602 1.602 0 01-2.385 0l-.107-.116a1.61 1.61 0 00-1.282-.534h-.178a1.6 1.6 0 01-1.69-1.682v-.169a1.6 1.6 0 00-.526-1.273l-.124-.106a1.602 1.602 0 010-2.386l.124-.115a1.6 1.6 0 00.525-1.273v-.16a1.611 1.611 0 011.691-1.691h.16a1.61 1.61 0 001.282-.534l.134-.116z" fill="#fff" stroke="#000" stroke-width=".712"/><path d="M18.105 5.697L15.71 8.091l-.8-.8" stroke="#000" stroke-width=".712" stroke-linecap="round" stroke-linejoin="round"/><defs><clipPath id="clip0_1807_847"><path fill="#fff" transform="translate(.696 1.426)" d="M0 0h12.816v13.172H0z"/></clipPath></defs></svg>
